fonts/svg/megaphone-24.svg

<?xml version="1.0" encoding="UTF-8" standalone="no"?>
<svg
   xmlns:dc="http://purl.org/dc/elements/1.1/"
   xmlns:cc="http://creativecommons.org/ns#"
   xmlns:rdf="http://www.w3.org/1999/02/22-rdf-syntax-ns#"
   xmlns:svg="http://www.w3.org/2000/svg"
   xmlns="http://www.w3.org/2000/svg"
   xmlns:sodipodi="http://sodipodi.sourceforge.net/DTD/sodipodi-0.dtd"
   xmlns:inkscape="http://www.inkscape.org/namespaces/inkscape"
   width="24"
   height="24"
   viewBox="0 0 24 24"
   version="1.1"
   id="svg1420"
   sodipodi:docname="megaphone-24.svg"
   inkscape:version="1.0.1 (c497b03c, 2020-09-10)">
  <metadata
     id="metadata1426">
    <rdf:RDF>
      <cc:Work
         rdf:about="">
        <dc:format>image/svg+xml</dc:format>
        <dc:type
           rdf:resource="http://purl.org/dc/dcmitype/StillImage" />
      </cc:Work>
    </rdf:RDF>
  </metadata>
  <defs
     id="defs1424" />
  <sodipodi:namedview
     pagecolor="#ffffff"
     bordercolor="#666666"
     borderopacity="1"
     objecttolerance="10"
     gridtolerance="10"
     guidetolerance="10"
     inkscape:pageopacity="0"
     inkscape:pageshadow="2"
     inkscape:window-width="920"
     inkscape:window-height="696"
     id="namedview1422"
     showgrid="false"
     inkscape:zoom="25.875"
     inkscape:cx="12.36715"
     inkscape:cy="10.68599"
     inkscape:window-x="0"
     inkscape:window-y="23"
     inkscape:window-maximized="0"
     inkscape:current-layer="svg1420" />
  <path
     fill-rule="evenodd"
     d="M 22,1.75 C 21.999715,1.1538655 21.337654,0.79631821 20.839,1.123 20.792,1.153 20.745,1.18 20.697,1.208 20.536357,1.3002737 20.372948,1.3876473 20.207,1.47 19.766,1.69 19.097,1.989 18.205,2.29 16.425,2.89 13.755,3.5 10.25,3.5 H 6.5 C 0.10915048,3.4938399 -1.150327,12.5562 5,14.293 v 0.457 c 0,3.061 0.684,5.505 1.061,6.621 0.24,0.709 0.904,1.129 1.6,1.129 h 2.013 c 1.294,0 2.1,-1.322 1.732,-2.453 C 10.994,18.779 10.5,16.779 10.5,14.5 c 0,-0.03 -0.002,-0.06 -0.005,-0.088 3.382,0.028 5.965,0.644 7.703,1.251 0.89,0.312 1.559,0.62 2,0.849 0.084,0.043 0.171,0.096 0.261,0.15 0.357,0.214 0.757,0.455 1.142,0.25 C 21.846223,16.782136 21.999705,16.527487 22,16.25 Z M 10.5,4.999 C 14.061,4.971 16.807,4.345 18.685,3.711 19.427,3.46 20.033,3.209 20.5,2.993 V 14.987 C 20.033,14.764 19.43,14.505 18.693,14.247 16.813,13.59 14.064,12.941 10.5,12.912 Z m -4,9.751 V 14.5 H 9 c 0,2.486 0.537,4.648 0.98,6.01 0.034588,0.117026 0.013579,0.243451 -0.057,0.343 C 9.853,20.957 9.761,21 9.674,21 H 7.661 C 7.556,21 7.5,20.942 7.482,20.891 7.138,19.873 6.5,17.597 6.5,14.75 Z M 6.5,5 H 9 v 8 H 6.5 C 1.166669,13 1.166669,5 6.5,5 Z"
     id="path1418"
     sodipodi:nodetypes="cccccsccscsscsccccccccccccccsccccsscssccss" />
</svg>

<svg xmlns="http://www.w3.org/2000/svg" width="24" height="24" viewBox="0 0 24 24"><path fill-rule="evenodd" d="M22 1.75a.75.75 0 00-1.161-.627c-.047.03-.094.057-.142.085a9.15 9.15 0 01-.49.262c-.441.22-1.11.519-2.002.82-1.78.6-4.45 1.21-7.955 1.21H6.5A5.5 5.5 0 005 14.293v.457c0 3.061.684 5.505 1.061 6.621.24.709.904 1.129 1.6 1.129h2.013c1.294 0 2.1-1.322 1.732-2.453-.412-1.268-.906-3.268-.906-5.547 0-.03-.002-.06-.005-.088 3.382.028 5.965.644 7.703 1.251.89.312 1.559.62 2 .849.084.043.171.096.261.15.357.214.757.455 1.142.25A.75.75 0 0022 16.25V1.75zM10.5 12.912c3.564.029 6.313.678 8.193 1.335.737.258 1.34.517 1.807.74V2.993c-.467.216-1.073.467-1.815.718-1.878.634-4.624 1.26-8.185 1.288v7.913zm-4 1.838v-.25H9c0 2.486.537 4.648.98 6.01a.398.398 0 01-.057.343c-.07.104-.162.147-.249.147H7.661c-.105 0-.161-.058-.179-.109-.344-1.018-.982-3.294-.982-6.141zM6.5 5H9v8H6.5a4 4 0 010-8z"/></svg>
